Origami/64x64/apps/xnretro.svg

<svg width="64" height="64" version="1.1" viewBox="0 0 64 64" xmlns="http://www.w3.org/2000/svg">
 <path d="m42 8c-12.150264 0-24 11.849736-24 24 0-3.137072 4.475142 7.369002 6.917968 5.703124 2.717916-1.853472 3.591688-15.703124 7.082032-15.703124 0.400466-4.92e-4 0.800706 0.019 1.199218 0.0586 0.0052 2.84e-4 0.0104 0.0036 0.0156 4e-3 11.581932 0.633866 18.785182 8.197178 18.785182 19.9374 0 3.496434-0.837656 6.791034-2.289062 9.726562 0.0915-0.05014 0.18266-0.10092 0.273438-0.15234 0.316632 0.382868 0.616796 0.722966 0.914062 1.046876a28 28 0 0 0 9.101562 -20.621098c-3e-4 -0.78438-0.04792-1.564036-0.11328-2.339844a28 28 0 0 0 -0.17578 -1.445312c-0.06046-0.441226-0.11412-0.883636-0.19532-1.320312a28 28 0 0 0 -0.296874 -1.328126c-0.1074-0.453576-0.210148-0.908514-0.339844-1.355468a28 28 0 0 0 -0.402344 -1.21875c-0.16092-0.472382-0.314166-0.947238-0.5-1.410156a28 28 0 0 0 -0.46484 -1.035156c-0.22092-0.491676-0.434444-0.986333-0.683594-1.464845a28 28 0 0 0 -0.527342 -0.925781c-0.276262-0.48464-0.546108-0.973082-0.851564-1.441406a28 28 0 0 0 -0.574218 -0.800782c-0.342476-0.486763-0.67639-0.979528-1.050782-1.445312a28 28 0 0 0 -0.367186 -0.417969c-0.473698-0.565968-0.955822-1.125829-1.476564-1.65625-3.0915-1.573902-6.511384-4.394405-9.980468-4.394531z" style="fill:#ffc42e"/>
 <path d="m33.203124 20.0625c5.83127 0.61452 8.796876 5.724298 8.796876 11.9375 4.92e-4 0.400466-0.019 0.800706-0.0586 1.199218-2.84e-4 0.0052-0.0036 0.0104-4e-3 0.0156-0.633866 11.581932-8.197178 18.785182-19.9374 18.785182-3.496435 0-6.791034-0.837656-9.726562-2.289062 0.05013 0.0915 0.100914 0.18266 0.152344 0.273438-0.576983 0.15258-0.980028 0.313972-1.433594 0.472656a28 28 0 0 0 15.074218 8.890624c1.514602 0.241952 2.99252 0.466074 4.164062 0.5625a28 28 0 0 0 1.769532 0.089844c0.78438-3e-4 1.564036-0.04792 2.339844-0.11328a28 28 0 0 0 1.445312 -0.17578c0.441226-0.06046 0.883636-0.11412 1.320312-0.19532a28 28 0 0 0 1.328126 -0.296874c0.453576-0.1074 0.908514-0.210148 1.355468-0.339844a28 28 0 0 0 1.21875 -0.402344c0.472382-0.16092 0.947238-0.314166 1.410156-0.5a28 28 0 0 0 1.035156 -0.464844c0.491676-0.22092 0.986332-0.434444 1.464844-0.683594a28 28 0 0 0 0.925782 -0.527342c0.48464-0.276262 0.973082-0.546108 1.441406-0.851564a28 28 0 0 0 0.800782 -0.574214c0.486762-0.342476 0.979528-0.67639 1.445312-1.050782a28 28 0 0 0 0.417968 -0.367186c0.56597-0.473698 1.12583-0.955822 1.65625-1.476564 1.573902-3.0915 2.394406-6.511384 2.394532-9.980468 0-11.744168-9.209498-21.309246-20.796876-21.9375z" style="fill:#ff8514"/>
 <path d="m 14.648438,10.027016 c -1.331194,1.050947 -2.557573,2.215413 -3.667524,3.476452 C 8.38332,16.45465 6.4233942,19.934751 5.25,23.726562 c -0.00173,0.0084 -0.00608,0.015 -0.00782,0.02344 C 4.517176,27.281596 4.0021158,30.426916 4,32 c 2.994e-4,0.78438 0.047916,1.564036 0.113282,2.339844 0.046056,0.483212 0.10467,0.965146 0.175782,1.445312 0.060452,0.441226 0.114122,0.883636 0.195312,1.320312 0.088184,0.445048 0.187172,0.887888 0.296875,1.328126 0.107406,0.453576 0.2101484,0.908514 0.3398438,1.355468 0.124786,0.40927 0.2589348,0.815628 0.4023438,1.21875 0.160912,0.472382 0.3141658,0.947238 0.5,1.410156 0.14794,0.348156 0.302919,0.69328 0.4648436,1.035156 0.22092,0.491676 0.4344452,0.986332 0.6835938,1.464844 0.169894,0.31191 0.3457066,0.62056 0.5273438,0.925782 0.2762618,0.48464 0.5461068,0.973082 0.8515624,1.441406 0.186694,0.270274 0.3781302,0.537244 0.5742188,0.800782 0.3424764,0.486762 0.6763898,0.979528 1.050781,1.445312 0.121008,0.14054 0.243411,0.279864 0.367188,0.417968 0.473696,0.56597 0.955822,1.12583 1.476562,1.65625 C 15.111031,53.17937 18.530916,53.999874 22,54 33.744168,54 43.309246,44.790502 43.9375,33.203124 43.32298,39.034394 38.213202,42 32,42 c -0.400466,4.92e-4 -0.800706,-0.019 -1.199218,-0.0586 -0.0052,-2.84e-4 -0.0104,-0.0036 -0.0156,-0.004 C 19.20325,41.303534 12,33.740222 12,22 c 0,-3.496435 0.289062,-9.726562 0.289062,-9.726562 0,0 3.584739,0.637601 2.417969,-1.328454 -0.01192,-0.361906 -0.04295,-0.582438 -0.05859,-0.917968 z" style="fill:#ff5757"/>
 <path d="m 32,44 c -2.334734,0 7.102818,-1.742752 5.323878,-2.896244 C 34.05309,38.982926 20.4,36.292682 20.4,32 c -4.92e-4,-0.400466 -0.381,-0.800706 -0.3414,-1.199218 2.84e-4,-0.0052 0.0036,-0.0104 0.004,-0.0156 C 20.696566,19.203276 30.259778,10 42,10 c 3.496434,0 6.791034,0.837658 9.726562,2.289062 -0.05014,-0.0915 -0.10092,-0.18266 -0.15234,-0.273438 C 46.348454,6.887258 39.321794,4.009848 32,4 24.666834,4.0028 17.627392,6.882168 12.394532,12.019532 10.82063,15.111032 10.000126,18.530916 10,22 c 0,12.150264 9.849736,22 22,22 z" style="fill:#baff41"/>
 <path d="M 32 4 A 28 28 0 0 0 4 32 A 28 28 0 0 0 4.0175781 32.492188 A 28 28 0 0 1 32 5 A 28 28 0 0 1 59.974609 32.492188 A 28 28 0 0 0 60 32 A 28 28 0 0 0 32 4 z" style="fill:#ffffff;opacity:.2"/>
 <path d="m42 10c-11.740222 0-21.303534 9.20325-21.9375 20.785156-4e-4 0.0052-0.003606 0.010415-0.003906 0.015625-0.01138 0.114483 0.015687 0.229018 0.054687 0.34375 0.945344-11.277853 10.364492-20.144531 21.886719-20.144531 3.496434 0 6.791035 0.837658 9.726562 2.289062-0.050139-0.091497-0.100923-0.182659-0.152343-0.273437-0.550321-0.540064-1.124385-1.049645-1.712891-1.539063-2.441856-0.943118-5.086687-1.476562-7.861328-1.476562zm-8.796875 10.0625c1.782056 0.187799 3.293174 0.799822 4.537109 1.730469 9.194225 2.476374 16.003006 10.74187 16.246094 20.660156 0.00312-0.151074 0.013667-0.301841 0.013672-0.453125 0-11.744168-9.209497-21.309246-20.796875-21.9375zm-23.189453 2.474609c-0.003256 0.154322-0.013666 0.30835-0.013672 0.462891 0 12.150264 9.849736 22 22 22a12 12 0 0 0 11.507812 -8.626953c-2.029476 10.048333-10.860649 17.626953-21.507812 17.626953-3.457417-1.26e-4 -6.865918-0.815349-9.949219-2.378906a28 28 0 0 1 -1.96289 -2.210938c-0.058724-0.075021-0.1108986-0.154349-0.1679691-0.230468a28 28 0 0 1 -1.4453125 -2.023438c-0.0673372-0.106088-0.126813-0.216584-0.1914063-0.324219a28 28 0 0 1 -1.1757812 -2.054687c-0.0959028-0.190216-0.1827653-0.384619-0.2714844-0.578125a28 28 0 0 1 -0.8769531 -1.964844c-0.0655694-0.171539-0.1234328-0.345982-0.1835938-0.519531a28 28 0 0 1 -0.6992187 -2.103516c-0.0496847-0.181077-0.0923808-0.364212-0.1367188-0.546875a28 28 0 0 1 -0.4863281 -2.175781c-0.030491-0.182898-0.0566701-0.366785-0.0820312-0.550781a28 28 0 0 1 -0.2714844 -2.25c-0.0200166-0.266246-0.0337115-0.533535-0.046875-0.800782a28 28 0 0 1 -0.03125 -0.701171 28 28 0 0 0 -0.0214844 0.414062c2.994e-4 0.78438 0.0479151 1.564036 0.1132812 2.339844 0.0019926 0.020904 0.0057731 0.0416 0.0078126 0.0625a28 28 0 0 0 0.1640624 1.345703c0.0018059 0.012307 0.002084 0.024805 0.0039063 0.037109 0.060452 0.441226 0.1141225 0.883637 0.1953125 1.320313 0.0047908 0.024178 0.0107705 0.0481 0.015625 0.072265a28 28 0 0 0 0.3203125 1.41211c0.0944475 0.401467 0.1860337 0.803778 0.3007813 1.199218 0.0067858 0.022257 0.0146431 0.044168 0.0214843 0.066407a28 28 0 0 0 0.5664063 1.673828c0.1012823 0.297535 0.1973682 0.59701 0.3144531 0.888672 0.0167538 0.039428 0.0358001 0.077838 0.0527344 0.117187a28 28 0 0 0 0.7636719 1.673828c0.1088398 0.237148 0.2113669 0.477238 0.3320312 0.708985 0.024414 0.044822 0.0515138 0.088126 0.0761719 0.132812a28 28 0 0 0 0.828125 1.429688c0.1555773 0.269709 0.3041573 0.54335 0.4746093 0.804687 0.040049 0.057978 0.0825626 0.114203 0.1230469 0.171875a28 28 0 0 0 1.0078125 1.394531c0.1632606 0.227548 0.3180775 0.460645 0.4941404 0.679688 0.05447 0.063262 0.110982 0.124731 0.166016 0.1875a28 28 0 0 0 0.681641 0.792969c0.321574 0.372612 0.649166 0.740373 0.996093 1.09375 0.014822 0.007545 0.030086 0.013973 0.044922 0.021484a28 28 0 0 0 19.935547 8.373047 28 28 0 0 0 28 -28 28 28 0 0 0 -0.021484 -0.585938 28 28 0 0 1 -27.978516 27.585938 28 28 0 0 1 -17.853516 -6.455078c2.501728 0.956332 5.162208 1.45498 7.853516 1.455078 11.744168 0 21.309246-9.209497 21.9375-20.796875-0.0115 0.109133-0.033335 0.211768-0.048828 0.318359a12 12 0 0 0 0.111328 -1.521484 12 12 0 0 0 -0.021484 -0.404297 12 12 0 0 1 -6.603516 10.113281c0.210235-0.210598 0.24097-0.416293-0.050781-0.605468-0.07615-0.04937-0.184386-0.100386-0.271485-0.150391-1.646167 1.005449-6.857275 2.046875-5.052734 2.046875a12 12 0 0 1 -11.974609 -11.5 12 12 0 0 0 -0.025391 0.5 12 12 0 0 0 5.332031 9.966797c-8.724517-2.773647-15.087981-10.84028-15.318359-20.429688z" style="opacity:.2"/>
 <path d="m44 32a12 12 0 0 1 -12 12 12 12 0 0 1 -12 -12 12 12 0 0 1 12 -12 12 12 0 0 1 12 12z" style="fill:#555555"/>
</svg>

<svg xmlns="http://www.w3.org/2000/svg" width="64" height="64" version="1.1" viewBox="0 0 64 64">
 <path style="fill:#ffc42e" d="M 42,8 C 29.849736,8 18,19.849736 18,32 c 0,-3.137072 4.475142,7.369002 6.917968,5.703124 C 27.635884,35.849652 28.509656,22 32,22 c 0.400466,-4.92e-4 0.800706,0.019 1.199218,0.0586 0.0052,2.84e-4 0.0104,0.0036 0.0156,0.004 C 44.79675,22.696466 52,30.259778 52,42 c 0,3.496434 -0.837656,6.791034 -2.289062,9.726562 0.0915,-0.05014 0.18266,-0.10092 0.273438,-0.15234 0.316632,0.382868 0.616796,0.722966 0.914062,1.046876 A 28,28 0 0 0 60,32 c -3e-4,-0.78438 -0.04792,-1.564036 -0.11328,-2.339844 a 28,28 0 0 0 -0.17578,-1.445312 c -0.06046,-0.441226 -0.11412,-0.883636 -0.19532,-1.320312 a 28,28 0 0 0 -0.296874,-1.328126 c -0.1074,-0.453576 -0.210148,-0.908514 -0.339844,-1.355468 a 28,28 0 0 0 -0.402344,-1.21875 c -0.16092,-0.472382 -0.314166,-0.947238 -0.5,-1.410156 a 28,28 0 0 0 -0.46484,-1.035156 C 57.290798,20.0552 57.077274,19.560543 56.828124,19.082031 A 28,28 0 0 0 56.300782,18.15625 C 56.02452,17.67161 55.754674,17.183168 55.449218,16.714844 A 28,28 0 0 0 54.875,15.914062 C 54.532524,15.427299 54.19861,14.934534 53.824218,14.46875 A 28,28 0 0 0 53.457032,14.050781 C 52.983334,13.484813 52.50121,12.924952 51.980468,12.394531 48.888968,10.820629 45.469084,8.000126 42,8 Z"/>
 <path style="fill:#ff8514" d="M 33.203124,20.0625 C 39.034394,20.67702 42,25.786798 42,32 c 4.92e-4,0.400466 -0.019,0.800706 -0.0586,1.199218 -2.84e-4,0.0052 -0.0036,0.0104 -0.004,0.0156 C 41.303534,44.79675 33.740222,52 22,52 c -3.496435,0 -6.791034,-0.837656 -9.726562,-2.289062 0.05013,0.0915 0.100914,0.18266 0.152344,0.273438 -0.576983,0.15258 -0.980028,0.313972 -1.433594,0.472656 a 28,28 0 0 0 15.074218,8.890624 c 1.514602,0.241952 2.99252,0.466074 4.164062,0.5625 A 28,28 0 0 0 32,60 c 0.78438,-3e-4 1.564036,-0.04792 2.339844,-0.11328 a 28,28 0 0 0 1.445312,-0.17578 c 0.441226,-0.06046 0.883636,-0.11412 1.320312,-0.19532 a 28,28 0 0 0 1.328126,-0.296874 c 0.453576,-0.1074 0.908514,-0.210148 1.355468,-0.339844 a 28,28 0 0 0 1.21875,-0.402344 c 0.472382,-0.16092 0.947238,-0.314166 1.410156,-0.5 a 28,28 0 0 0 1.035156,-0.464844 c 0.491676,-0.22092 0.986332,-0.434444 1.464844,-0.683594 a 28,28 0 0 0 0.925782,-0.527342 c 0.48464,-0.276262 0.973082,-0.546108 1.441406,-0.851564 A 28,28 0 0 0 48.085938,54.875 c 0.486762,-0.342476 0.979528,-0.67639 1.445312,-1.050782 a 28,28 0 0 0 0.417968,-0.367186 c 0.56597,-0.473698 1.12583,-0.955822 1.65625,-1.476564 C 53.17937,48.888968 53.999874,45.469084 54,42 54,30.255832 44.790502,20.690754 33.203124,20.0625 Z"/>
 <path style="fill:#ff5757" d="m 14.648438,10.027016 c -1.331194,1.050947 -2.557573,2.215413 -3.667524,3.476452 C 8.38332,16.45465 6.4233942,19.934751 5.25,23.726562 c -0.00173,0.0084 -0.00608,0.015 -0.00782,0.02344 C 4.517176,27.281596 4.0021158,30.426916 4,32 c 2.994e-4,0.78438 0.047916,1.564036 0.113282,2.339844 0.046056,0.483212 0.10467,0.965146 0.175782,1.445312 0.060452,0.441226 0.114122,0.883636 0.195312,1.320312 0.088184,0.445048 0.187172,0.887888 0.296875,1.328126 0.107406,0.453576 0.2101484,0.908514 0.3398438,1.355468 0.124786,0.40927 0.2589348,0.815628 0.4023438,1.21875 0.160912,0.472382 0.3141658,0.947238 0.5,1.410156 0.14794,0.348156 0.302919,0.69328 0.4648436,1.035156 0.22092,0.491676 0.4344452,0.986332 0.6835938,1.464844 0.169894,0.31191 0.3457066,0.62056 0.5273438,0.925782 0.2762618,0.48464 0.5461068,0.973082 0.8515624,1.441406 0.186694,0.270274 0.3781302,0.537244 0.5742188,0.800782 0.3424764,0.486762 0.6763898,0.979528 1.050781,1.445312 0.121008,0.14054 0.243411,0.279864 0.367188,0.417968 0.473696,0.56597 0.955822,1.12583 1.476562,1.65625 C 15.111031,53.17937 18.530916,53.999874 22,54 33.744168,54 43.309246,44.790502 43.9375,33.203124 43.32298,39.034394 38.213202,42 32,42 c -0.400466,4.92e-4 -0.800706,-0.019 -1.199218,-0.0586 -0.0052,-2.84e-4 -0.0104,-0.0036 -0.0156,-0.004 C 19.20325,41.303534 12,33.740222 12,22 c 0,-3.496435 0.289062,-9.726562 0.289062,-9.726562 0,0 3.584739,0.637601 2.417969,-1.328454 -0.01192,-0.361906 -0.04295,-0.582438 -0.05859,-0.917968 z"/>
 <path style="fill:#baff41" d="m 32,44 c -2.334734,0 7.102818,-1.742752 5.323878,-2.896244 C 34.05309,38.982926 20.4,36.292682 20.4,32 c -4.92e-4,-0.400466 -0.381,-0.800706 -0.3414,-1.199218 2.84e-4,-0.0052 0.0036,-0.0104 0.004,-0.0156 C 20.696566,19.203276 30.259778,10 42,10 c 3.496434,0 6.791034,0.837658 9.726562,2.289062 -0.05014,-0.0915 -0.10092,-0.18266 -0.15234,-0.273438 C 46.348454,6.887258 39.321794,4.009848 32,4 24.666834,4.0028 17.627392,6.882168 12.394532,12.019532 10.82063,15.111032 10.000126,18.530916 10,22 c 0,12.150264 9.849736,22 22,22 z"/>
 <path style="opacity:0.2;fill:#ffffff" d="M 32 4 A 28 28 0 0 0 4 32 A 28 28 0 0 0 4.0175781 32.492188 A 28 28 0 0 1 32 5 A 28 28 0 0 1 59.974609 32.492188 A 28 28 0 0 0 60 32 A 28 28 0 0 0 32 4 z"/>
 <path style="opacity:0.2" d="M 42 10 C 30.259778 10 20.696466 19.20325 20.0625 30.785156 C 20.0621 30.790356 20.058894 30.795571 20.058594 30.800781 C 20.047214 30.915264 20.074281 31.029799 20.113281 31.144531 C 21.058625 19.866678 30.477773 11 42 11 C 45.496434 11 48.791035 11.837658 51.726562 13.289062 C 51.676423 13.197565 51.625639 13.106403 51.574219 13.015625 C 51.023898 12.475561 50.449834 11.96598 49.861328 11.476562 C 47.419472 10.533444 44.774641 10 42 10 z M 33.203125 20.0625 C 34.985181 20.250299 36.496299 20.862322 37.740234 21.792969 C 46.934459 24.269343 53.74324 32.534839 53.986328 42.453125 C 53.989448 42.302051 53.999995 42.151284 54 42 C 54 30.255832 44.790503 20.690754 33.203125 20.0625 z M 10.013672 22.537109 C 10.010416 22.691431 10.000006 22.845459 10 23 C 10 35.150264 19.849736 45 32 45 A 12 12 0 0 0 43.507812 36.373047 C 41.478336 46.42138 32.647163 54 22 54 C 18.542583 53.999874 15.134082 53.184651 12.050781 51.621094 A 28 28 0 0 1 10.087891 49.410156 C 10.029167 49.335135 9.9769924 49.255807 9.9199219 49.179688 A 28 28 0 0 1 8.4746094 47.15625 C 8.4072722 47.050162 8.3477964 46.939666 8.2832031 46.832031 A 28 28 0 0 1 7.1074219 44.777344 C 7.0115191 44.587128 6.9246566 44.392725 6.8359375 44.199219 A 28 28 0 0 1 5.9589844 42.234375 C 5.893415 42.062836 5.8355516 41.888393 5.7753906 41.714844 A 28 28 0 0 1 5.0761719 39.611328 C 5.0264872 39.430251 4.9837911 39.247116 4.9394531 39.064453 A 28 28 0 0 1 4.453125 36.888672 C 4.422634 36.705774 4.3964549 36.521887 4.3710938 36.337891 A 28 28 0 0 1 4.0996094 34.087891 C 4.0795928 33.821645 4.0658979 33.554356 4.0527344 33.287109 A 28 28 0 0 1 4.0214844 32.585938 A 28 28 0 0 0 4 33 C 4.0002994 33.78438 4.0479151 34.564036 4.1132812 35.339844 C 4.1152738 35.360748 4.1190543 35.381444 4.1210938 35.402344 A 28 28 0 0 0 4.2851562 36.748047 C 4.2869621 36.760354 4.2872402 36.772852 4.2890625 36.785156 C 4.3495145 37.226382 4.403185 37.668793 4.484375 38.105469 C 4.4891658 38.129647 4.4951455 38.153569 4.5 38.177734 A 28 28 0 0 0 4.8203125 39.589844 C 4.91476 39.991311 5.0063462 40.393622 5.1210938 40.789062 C 5.1278796 40.811319 5.1357369 40.83323 5.1425781 40.855469 A 28 28 0 0 0 5.7089844 42.529297 C 5.8102667 42.826832 5.9063526 43.126307 6.0234375 43.417969 C 6.0401913 43.457397 6.0592376 43.495807 6.0761719 43.535156 A 28 28 0 0 0 6.8398438 45.208984 C 6.9486836 45.446132 7.0512107 45.686222 7.171875 45.917969 C 7.196289 45.962791 7.2233888 46.006095 7.2480469 46.050781 A 28 28 0 0 0 8.0761719 47.480469 C 8.2317492 47.750178 8.3803292 48.023819 8.5507812 48.285156 C 8.5908302 48.343134 8.6333438 48.399359 8.6738281 48.457031 A 28 28 0 0 0 9.6816406 49.851562 C 9.8449012 50.07911 9.9997181 50.312207 10.175781 50.53125 C 10.230251 50.594512 10.286763 50.655981 10.341797 50.71875 A 28 28 0 0 0 11.023438 51.511719 C 11.345012 51.884331 11.672604 52.252092 12.019531 52.605469 C 12.034353 52.613014 12.049617 52.619442 12.064453 52.626953 A 28 28 0 0 0 32 61 A 28 28 0 0 0 60 33 A 28 28 0 0 0 59.978516 32.414062 A 28 28 0 0 1 32 60 A 28 28 0 0 1 14.146484 53.544922 C 16.648212 54.501254 19.308692 54.999902 22 55 C 33.744168 55 43.309246 45.790503 43.9375 34.203125 C 43.926 34.312258 43.904165 34.414893 43.888672 34.521484 A 12 12 0 0 0 44 33 A 12 12 0 0 0 43.978516 32.595703 A 12 12 0 0 1 37.375 42.708984 C 37.585235 42.498386 37.61597 42.292691 37.324219 42.103516 C 37.248069 42.054146 37.139833 42.00313 37.052734 41.953125 C 35.406567 42.958574 30.195459 44 32 44 A 12 12 0 0 1 20.025391 32.5 A 12 12 0 0 0 20 33 A 12 12 0 0 0 25.332031 42.966797 C 16.607514 40.19315 10.24405 32.126517 10.013672 22.537109 z"/>
 <path style="fill:#555555" d="M 44,32 A 12,12 0 0 1 32,44 12,12 0 0 1 20,32 12,12 0 0 1 32,20 12,12 0 0 1 44,32 Z"/>
</svg>
